packages/admin/admin-icons/icons/crop-action.svg

<svg xmlns="http://www.w3.org/2000/svg" width="16" height="16" viewBox="0 0 16 16"><path fill="#242424" fill-rule="evenodd" d="M9.14644661,9.14644661 C8.97288026,9.32001296 8.95359511,9.58943736 9.08859116,9.7843055 L9.14644661,9.85355339 L13.292,14 L11.5,14 C11.2545401,14 11.0503916,14.1768752 11.0080557,14.4101244 L11,14.5 C11,14.7454599 11.1768752,14.9496084 11.4101244,14.9919443 L11.5,15 L14.5,15 L14.5534276,14.997179 L14.6281458,14.9833917 L14.6910366,14.9622078 L14.7670103,14.922812 L14.8221372,14.8824163 L14.8535534,14.8535534 L14.891039,14.8116622 L14.9332526,14.7497651 L14.9623894,14.6905951 L14.9833892,14.6281391 L14.997912,14.5457862 L15,14.5 L15,11.5 C15,11.2238576 14.7761424,11 14.5,11 C14.2545401,11 14.0503916,11.1768752 14.0080557,11.4101244 L14,11.5 L13.999,13.293 L9.85355339,9.14644661 C9.65829124,8.95118446 9.34170876,8.95118446 9.14644661,9.14644661 Z M1.5,1 L1.4465724,1.00282096 L1.37185423,1.01660826 L1.30896344,1.03779224 L1.23298968,1.07718801 L1.17786279,1.11758372 L1.14644661,1.14644661 L1.10896102,1.18833775 L1.06674743,1.25023485 L1.03761056,1.3094049 L1.01661082,1.37186086 L1.00208799,1.45421382 L1,1.5 L1,4.5 C1,4.77614237 1.22385763,5 1.5,5 C1.74545989,5 1.94960837,4.82312484 1.99194433,4.58987563 L2,4.5 L2.001,2.707 L6.14644661,6.85355339 C6.34170876,7.04881554 6.65829124,7.04881554 6.85355339,6.85355339 C7.02711974,6.67998704 7.04640489,6.41056264 6.91140884,6.2156945 L6.85355339,6.14644661 L2.708,2 L4.5,2 C4.74545989,2 4.94960837,1.82312484 4.99194433,1.58987563 L5,1.5 C5,1.25454011 4.82312484,1.05039163 4.58987563,1.00805567 L4.5,1 L1.5,1 Z"/></svg>

<svg width="16" height="16" fill="none" viewBox="0 0 16 16">
  <path fill="#242424" fill-rule="evenodd" d="M9.146 9.147a.5.5 0 0 0-.057.638l.057.07L13.292 14H11.5a.5.5 0 0 0-.492.41L11 14.5a.5.5 0 0 0 .41.492l.09.008h3l.053-.003.075-.014.063-.02.076-.04.055-.04.032-.03.037-.041.042-.062.03-.06.02-.062.015-.082L15 14.5v-3a.5.5 0 0 0-.992-.09L14 11.5l-.001 1.793-4.145-4.147a.5.5 0 0 0-.708 0ZM1.5 1.001l-.053.003-.075.014-.063.02-.076.04-.055.04-.032.03-.037.041-.042.062-.03.06-.02.062-.015.082L1 1.501v3a.5.5 0 0 0 .992.09L2 4.5l.001-1.793 4.145 4.147a.5.5 0 0 0 .765-.638l-.057-.07L2.708 2H4.5a.5.5 0 0 0 .492-.41L5 1.5a.5.5 0 0 0-.41-.492L4.5 1h-3Z" clip-rule="evenodd"/>
</svg>
